build/system/IPSolid.svg

<svg xmlns="http://www.w3.org/2000/svg" fill="none" viewBox="0 0 24 24" focusable="false"><path d="M0 0H24V24H0z"/><path fill="#74767B" fill-rule="evenodd" d="M5.04492 9.91602C5.04492 14.387 10.0264 19.301 11.5576 20.7061C11.8096 20.9373 12.1904 20.9377 12.4429 20.7068C13.9751 19.3054 18.9551 14.4055 18.9551 9.91602C18.9551 6.16309 15.8413 3.12061 12 3.12061C8.15869 3.12061 5.04492 6.16309 5.04492 9.91602ZM11.4966 13.4277L11.4966 8.06348C11.4966 7.84684 11.5508 7.68433 11.6592 7.57593C11.7673 7.46753 11.9297 7.41333 12.1465 7.41333L13.8755 7.41333C14.189 7.41333 14.4893 7.47412 14.7764 7.59546C14.9085 7.65145 15.0335 7.71834 15.1514 7.79614C15.2799 7.88127 15.3999 7.97974 15.5112 8.09106C15.6226 8.20239 15.7209 8.32243 15.8062 8.45117C15.884 8.56885 15.9508 8.69385 16.0068 8.82617C16.0628 8.9585 16.106 9.09375 16.1362 9.23193C16.1714 9.39307 16.189 9.55802 16.189 9.72681C16.189 10.0403 16.1284 10.3406 16.0068 10.6274C15.9508 10.7598 15.884 10.8848 15.8062 11.0027C15.7209 11.1313 15.6226 11.2513 15.5112 11.3628C15.2983 11.5759 15.0532 11.7412 14.7764 11.8582C14.6439 11.9141 14.5086 11.9573 14.3706 11.9875C14.2095 12.0227 14.0444 12.0403 13.8755 12.0403L12.7964 12.0403L12.7964 13.4277C12.7964 13.7917 12.5103 14.0779 12.1465 14.0779C11.7822 14.0779 11.4966 13.7917 11.4966 13.4277ZM9.94287 8.06348C9.94287 7.69946 9.65674 7.41357 9.29297 7.41357C8.92871 7.41357 8.64307 7.69946 8.64307 8.06348L8.64307 13.4277C8.64307 13.7917 8.92871 14.0776 9.29297 14.0776C9.65674 14.0776 9.94287 13.7917 9.94287 13.4277L9.94287 8.06348ZM13.8755 10.7402L12.7964 10.7402L12.7964 8.71338L13.8755 8.71338C14.0132 8.71338 14.1445 8.73999 14.27 8.79272C14.3911 8.84399 14.4985 8.9165 14.5923 9.01025C14.686 9.104 14.7583 9.21143 14.8096 9.33252C14.8314 9.38412 14.8486 9.43669 14.8613 9.49023C14.8799 9.56689 14.8892 9.64575 14.8892 9.72681C14.8892 9.8645 14.8623 9.99609 14.8096 10.1211C14.7583 10.2422 14.686 10.3499 14.5923 10.4434C14.4985 10.5371 14.3911 10.6096 14.27 10.6609C14.1445 10.7139 14.0132 10.7402 13.8755 10.7402Z"/></svg>

<svg xmlns="http://www.w3.org/2000/svg" fill="none" viewBox="0 0 24 24" focusable="false"><path fill="#74767B" fill-rule="evenodd" d="M5.04 9.91c0 4.47 4.98 9.39 6.51 10.79.25.23.64.23.89 0 1.53-1.4 6.51-6.3 6.51-10.79 0-3.75-3.11-6.79-6.95-6.79-3.85 0-6.96 3.04-6.96 6.79m6.45 3.51V8.06c0-.22.06-.38.16-.49.11-.11.27-.16.49-.16h1.73q.465 0 .9.18c.13.06.26.12.38.2.12.09.24.18.36.3.11.11.21.23.29.36.08.11.15.24.2.37.06.13.1.27.13.41.04.16.05.32.05.49q0 .48-.18.9c-.05.13-.12.26-.2.38-.08.13-.18.25-.29.36-.22.21-.46.38-.74.49-.13.06-.27.1-.4.13-.17.04-.33.06-.5.06h-1.08v1.38c0 .37-.28.65-.65.65-.36 0-.65-.28-.65-.65M9.94 8.06c0-.37-.29-.65-.65-.65-.37 0-.65.28-.65.65v5.36c0 .37.28.65.65.65.36 0 .65-.28.65-.65zm3.93 2.68h-1.08V8.71h1.08c.14 0 .27.02.4.08a.988.988 0 0 1 .53.54c.03.05.04.1.06.16.01.07.02.15.02.23 0 .14-.02.27-.08.4-.05.12-.12.22-.21.32-.1.09-.2.16-.32.22-.13.05-.26.08-.4.08"/></svg>
